public/favicon.svg

<svg width="75" height="74" viewBox="0 0 75 74" fill="none" xmlns="http://www.w3.org/2000/svg">
<g id="pepicons-pencil:knive-fork-circle">
<g id="Group">
<path id="Vector" fill-rule="evenodd" clip-rule="evenodd" d="M49.7233 11.5292C43.5756 14.5575 40.3879 18.8153 40.3879 24.2088C40.3879 29.3888 43.3394 32.8924 48.9264 34.5432V39.8456C48.9264 40.223 49.0763 40.585 49.3432 40.8518C49.6101 41.1187 49.9721 41.2687 50.3495 41.2687C50.7269 41.2687 51.0889 41.1187 51.3557 40.8518C51.6226 40.585 51.7726 40.223 51.7726 39.8456V12.8071C51.7726 12.5655 51.711 12.3279 51.5938 12.1166C51.4766 11.9054 51.3075 11.7274 51.1025 11.5996C50.8975 11.4717 50.6633 11.3982 50.422 11.3859C50.1807 11.3736 49.9403 11.4229 49.7233 11.5292ZM43.2341 24.2088C43.2341 20.5999 45.0841 17.6228 48.9264 15.2207V31.5576C45.0442 30.2 43.2341 27.7978 43.2341 24.2088Z" fill="#F8F8F8"/>
<path id="Vector_2" fill-rule="evenodd" clip-rule="evenodd" d="M46.0803 44.1147V58.3455C46.0803 59.4777 46.5301 60.5636 47.3308 61.3643C48.1314 62.1649 49.2173 62.6147 50.3496 62.6147C51.4818 62.6147 52.5677 62.1649 53.3684 61.3643C54.169 60.5636 54.6188 59.4777 54.6188 58.3455V44.1147C54.6188 42.9824 54.169 41.8965 53.3684 41.0959C52.5677 40.2953 51.4818 39.8455 50.3496 39.8455C49.2173 39.8455 48.1314 40.2953 47.3308 41.0959C46.5301 41.8965 46.0803 42.9824 46.0803 44.1147ZM50.3496 59.7685C49.9721 59.7685 49.6102 59.6186 49.3433 59.3517C49.0764 59.0848 48.9265 58.7229 48.9265 58.3455V44.1147C48.9265 43.7373 49.0764 43.3753 49.3433 43.1084C49.6102 42.8415 49.9721 42.6916 50.3496 42.6916C50.727 42.6916 51.0889 42.8415 51.3558 43.1084C51.6227 43.3753 51.7726 43.7373 51.7726 44.1147V58.3455C51.7726 58.7229 51.6227 59.0848 51.3558 59.3517C51.0889 59.6186 50.727 59.7685 50.3496 59.7685Z" fill="#F8F8F8"/>
<path id="Vector_3" d="M21.9792 15.5825C21.9981 15.205 22.1661 14.8506 22.4463 14.597C22.7265 14.3435 23.096 14.2117 23.4734 14.2305C23.8508 14.2494 24.2053 14.4174 24.4588 14.6977C24.7124 14.9779 24.8442 15.3473 24.8253 15.7248C24.5863 20.4835 24.8339 23.7225 25.4999 25.3277C26.0207 26.5857 27.0482 27.1322 28.921 27.0268C29.292 27.0146 29.6531 27.1479 29.9273 27.3982C30.2014 27.6485 30.3669 27.996 30.3885 28.3666C30.41 28.7372 30.2859 29.1015 30.0425 29.3819C29.7992 29.6623 29.456 29.8365 29.086 29.8673C26.0748 30.0381 23.889 28.874 22.87 26.4206C21.9963 24.3145 21.723 20.7397 21.9792 15.5825Z" fill="#F8F8F8"/>
<path id="Vector_4" d="M36.0245 15.5823C36.0224 15.3908 35.9816 15.2017 35.9046 15.0264C35.8276 14.851 35.716 14.693 35.5765 14.5618C35.4369 14.4306 35.2724 14.3289 35.0926 14.2628C34.9129 14.1967 34.7216 14.1676 34.5304 14.1772C34.3391 14.1868 34.1517 14.2349 33.9795 14.3186C33.8072 14.4023 33.6536 14.5199 33.5279 14.6644C33.4022 14.8089 33.307 14.9773 33.2479 15.1595C33.1888 15.3416 33.1671 15.5339 33.1841 15.7246C33.4203 20.4834 33.1727 23.7223 32.5067 25.3275C31.9859 26.5855 30.9584 27.132 29.0856 27.0267C28.7146 27.0145 28.3535 27.1477 28.0793 27.398C27.8052 27.6483 27.6397 27.9958 27.6181 28.3664C27.5966 28.737 27.7207 29.1014 27.964 29.3818C28.2074 29.6621 28.5506 29.8363 28.9205 29.8672C31.9318 30.0379 34.1176 28.8739 35.1365 26.4205C36.0103 24.3143 36.2835 20.7395 36.0245 15.5823Z" fill="#F8F8F8"/>
<path id="Vector_5" d="M27.5803 15.6534C27.5803 15.276 27.7303 14.914 27.9971 14.6472C28.264 14.3803 28.626 14.2303 29.0034 14.2303C29.3808 14.2303 29.7428 14.3803 30.0097 14.6472C30.2765 14.914 30.4265 15.276 30.4265 15.6534V41.2688C30.4265 41.6462 30.2765 42.0082 30.0097 42.2751C29.7428 42.542 29.3808 42.6919 29.0034 42.6919C28.626 42.6919 28.264 42.542 27.9971 42.2751C27.7303 42.0082 27.5803 41.6462 27.5803 41.2688V15.6534Z" fill="#F8F8F8"/>
<path id="Vector_6" fill-rule="evenodd" clip-rule="evenodd" d="M24.7341 44.1147V58.3455C24.7341 59.4777 25.1839 60.5636 25.9846 61.3643C26.7852 62.1649 27.8711 62.6147 29.0034 62.6147C30.1356 62.6147 31.2215 62.1649 32.0222 61.3643C32.8228 60.5636 33.2726 59.4777 33.2726 58.3455V44.1147C33.2726 42.9824 32.8228 41.8965 32.0222 41.0959C31.2215 40.2953 30.1356 39.8455 29.0034 39.8455C27.8711 39.8455 26.7852 40.2953 25.9846 41.0959C25.1839 41.8965 24.7341 42.9824 24.7341 44.1147ZM29.0034 59.7685C28.6259 59.7685 28.264 59.6186 27.9971 59.3517C27.7302 59.0848 27.5803 58.7229 27.5803 58.3455V44.1147C27.5803 43.7373 27.7302 43.3753 27.9971 43.1084C28.264 42.8415 28.6259 42.6916 29.0034 42.6916C29.3808 42.6916 29.7428 42.8415 30.0096 43.1084C30.2765 43.3753 30.4264 43.7373 30.4264 44.1147V58.3455C30.4264 58.7229 30.2765 59.0848 30.0096 59.3517C29.7428 59.6186 29.3808 59.7685 29.0034 59.7685Z" fill="#F8F8F8"/>
<path id="Vector_7" fill-rule="evenodd" clip-rule="evenodd" d="M37.5416 69.7303C55.6176 69.7303 70.2724 55.0755 70.2724 36.9995C70.2724 18.9236 55.6176 4.26876 37.5416 4.26876C19.4657 4.26876 4.81088 18.9236 4.81088 36.9995C4.81088 55.0755 19.4657 69.7303 37.5416 69.7303ZM37.5416 72.5765C57.1915 72.5765 73.1186 56.6494 73.1186 36.9995C73.1186 17.3497 57.1915 1.42261 37.5416 1.42261C17.8918 1.42261 1.96472 17.3497 1.96472 36.9995C1.96472 56.6494 17.8918 72.5765 37.5416 72.5765Z" fill="#F8F8F8"/>
</g>
</g>
</svg>

<svg xmlns="http://www.w3.org/2000/svg" width="75" height="74" fill="none"><g fill="#F8F8F8"><path fill-rule="evenodd" d="M49.723 11.53c-6.147 3.027-9.335 7.285-9.335 12.679 0 5.18 2.951 8.683 8.538 10.334v5.303a1.423 1.423 0 1 0 2.847 0V12.807a1.424 1.424 0 0 0-2.05-1.278Zm-6.489 12.679c0-3.61 1.85-6.586 5.692-8.988v16.337c-3.882-1.358-5.692-3.76-5.692-7.35Z" clip-rule="evenodd"/><path fill-rule="evenodd" d="M46.08 44.115v14.23a4.27 4.27 0 0 0 8.539 0v-14.23a4.27 4.27 0 1 0-8.539 0Zm4.27 15.654a1.423 1.423 0 0 1-1.424-1.423V44.114a1.423 1.423 0 1 1 2.847 0v14.23a1.423 1.423 0 0 1-1.423 1.424Z" clip-rule="evenodd"/><path d="M21.98 15.582a1.425 1.425 0 0 1 2.845.143c-.239 4.758.009 7.998.675 9.603.52 1.258 1.548 1.804 3.421 1.699a1.423 1.423 0 0 1 .165 2.84c-3.011.171-5.197-.993-6.216-3.446-.874-2.107-1.147-5.681-.89-10.838Z"/><path d="M36.025 15.582a1.421 1.421 0 0 0-2.045-1.263 1.422 1.422 0 0 0-.796 1.406c.236 4.758-.011 7.997-.677 9.603-.521 1.258-1.549 1.804-3.421 1.699a1.423 1.423 0 0 0-.165 2.84c3.01.17 5.197-.993 6.215-3.447.874-2.106 1.147-5.68.889-10.838Z"/><path d="M27.58 15.653a1.423 1.423 0 0 1 2.847 0V41.27a1.424 1.424 0 0 1-2.847 0V15.653Z"/><path fill-rule="evenodd" d="M24.734 44.115v14.23a4.27 4.27 0 0 0 8.539 0v-14.23a4.27 4.27 0 1 0-8.539 0Zm4.27 15.654a1.423 1.423 0 0 1-1.424-1.423V44.114a1.423 1.423 0 1 1 2.846 0v14.23a1.423 1.423 0 0 1-1.423 1.424Z" clip-rule="evenodd"/><path fill-rule="evenodd" d="M37.542 69.73c18.076 0 32.73-14.655 32.73-32.73 0-18.076-14.654-32.731-32.73-32.731-18.076 0-32.731 14.655-32.731 32.73 0 18.076 14.655 32.731 32.73 32.731Zm0 2.846c19.65 0 35.577-15.927 35.577-35.576 0-19.65-15.928-35.577-35.577-35.577-19.65 0-35.577 15.927-35.577 35.576 0 19.65 15.927 35.577 35.577 35.577Z" clip-rule="evenodd"/></g></svg>
